web/assets/img/functions/980_1.svg

<svg width="512" height="512" viewBox="0 0 512 512" fill="none" xmlns="http://www.w3.org/2000/svg">
    <path d="M75.0237 382.507L127.313 386.242H383.148L453.487 375.66L487.1 333.954L467.181 327.107L427.343 349.516L387.505 327.107L347.667 349.516L307.206 327.107L271.725 349.516L230.02 327.107L189.559 349.516L146.609 327.107L106.148 349.516L66.9325 327.107L30.207 349.516L75.0237 382.507Z"
          fill="#12A71E"/>
    <path d="M401 131.5H210V95.5C210 92.8478 208.946 90.3043 207.071 88.4289C205.196 86.5536 202.652 85.5 200 85.5H128C125.348 85.5 122.804 86.5536 120.929 88.4289C119.054 90.3043 118 92.8478 118 95.5V131.5H111C81.8367 131.534 53.8778 143.135 33.2563 163.756C12.6347 184.378 1.0344 212.337 1 241.5V287.5C1.03176 316.664 12.6312 344.625 33.2533 365.247C53.8755 385.869 81.8359 397.468 111 397.5H118V416.5C118 419.152 119.054 421.696 120.929 423.571C122.804 425.446 125.348 426.5 128 426.5H200C202.652 426.5 205.196 425.446 207.071 423.571C208.946 421.696 210 419.152 210 416.5V397.5H302V416.5C302 419.152 303.054 421.696 304.929 423.571C306.804 425.446 309.348 426.5 312 426.5H384C386.652 426.5 389.196 425.446 391.071 423.571C392.946 421.696 394 419.152 394 416.5V397.5H401C430.164 397.468 458.125 385.869 478.747 365.247C499.369 344.625 510.968 316.664 511 287.5V241.5C510.966 212.337 499.365 184.378 478.744 163.756C458.122 143.135 430.163 131.534 401 131.5ZM118 377.5H111C87.1386 377.474 64.2622 367.983 47.3896 351.11C30.5171 334.238 21.0265 311.361 21 287.5V241.5C21.0265 217.639 30.5171 194.762 47.3896 177.89C64.2622 161.017 87.1386 151.526 111 151.5H118V377.5ZM138 105.5H190V131.5H138V105.5ZM190 406.5H138V397.5H190V406.5ZM138 377.5V151.5H373V377.5H138ZM374 406.5H322V397.5H374V406.5ZM491 287.5C490.974 311.361 481.483 334.238 464.61 351.11C447.738 367.983 424.861 377.474 401 377.5H393V151.5H401C424.861 151.526 447.738 161.017 464.61 177.89C481.483 194.762 490.974 217.639 491 241.5V287.5Z"
          fill="#282828"/>
    <path d="M17.0898 332.929C22.0098 337.829 24.3898 339.999 30.0098 339.999C35.6298 339.999 38.0298 337.829 42.9298 332.929C48.3898 327.469 55.8598 319.999 69.9998 319.999C84.1262 319.999 91.5954 327.454 97.064 332.913L97.0798 332.929C102 337.829 104.39 339.999 110 339.999C115.61 339.999 118 337.829 122.93 332.929C128.38 327.469 135.87 319.999 150 319.999C164.103 319.999 171.571 327.44 177.048 332.897L177.08 332.929C182 337.829 184.4 339.999 190 339.999C195.6 339.999 198 337.829 202.93 332.929C208.38 327.469 215.88 319.999 230 319.999C244.12 319.999 251.59 327.469 257.05 332.929C258.14 334.019 259.1 334.969 260 335.779L260.02 358.579C252.02 356.159 246.93 351.069 242.93 347.069C238 342.169 235.62 339.999 230 339.999C224.38 339.999 221.97 342.169 217.07 347.069L217.047 347.092C211.589 352.55 204.14 359.999 190 359.999C175.84 359.999 168.37 352.529 162.92 347.069C158 342.169 155.62 339.999 150 339.999C144.38 339.999 141.97 342.169 137.07 347.069C131.62 352.529 124.15 359.999 110 359.999C95.8498 359.999 88.3798 352.529 82.9198 347.069C77.9898 342.169 75.6099 339.999 69.9899 339.999C64.3699 339.999 61.9699 342.169 57.0699 347.069C51.6099 352.529 44.1299 359.999 29.9998 359.999L17.0898 332.929Z"
          fill="#282828"/>
    <path d="M162.936 347.069C161.856 345.989 160.896 345.039 159.996 344.229V321.419C167.996 323.839 173.086 328.929 177.086 332.929C182.006 337.829 184.386 339.999 190.006 339.999C195.626 339.999 198.026 337.829 202.926 332.929C208.386 327.469 215.856 319.999 229.996 319.999C244.122 319.999 251.592 327.454 257.06 332.913L257.076 332.929C261.996 337.829 264.386 339.999 269.996 339.999C275.606 339.999 277.996 337.829 282.926 332.929C288.376 327.469 295.866 319.999 309.996 319.999C324.099 319.999 331.567 327.44 337.044 332.897L337.076 332.929L322.916 347.069C317.996 342.169 315.616 339.999 309.996 339.999C304.376 339.999 301.966 342.169 297.066 347.069C291.616 352.529 284.146 359.999 269.996 359.999C255.846 359.999 248.376 352.529 242.916 347.069C237.986 342.169 235.606 339.999 229.986 339.999C224.366 339.999 221.966 342.169 217.066 347.069C211.606 352.529 204.126 359.999 189.996 359.999C175.866 359.999 168.396 352.529 162.936 347.069Z"
          fill="#282828"/>
    <path d="M322.927 347.069C321.847 345.989 320.887 345.039 319.987 344.229V321.419C327.987 323.839 333.076 328.929 337.076 332.929C341.996 337.829 344.377 339.999 349.997 339.999C355.617 339.999 358.017 337.829 362.917 332.929C368.377 327.469 375.847 319.999 389.987 319.999C404.113 319.999 411.582 327.454 417.051 332.913L417.067 332.929C421.987 337.829 424.377 339.999 429.987 339.999C435.597 339.999 437.987 337.829 442.917 332.929C448.367 327.469 455.857 319.999 469.987 319.999C484.09 319.999 491.558 327.44 497.035 332.897L497.067 332.929L482.907 347.069C477.987 342.169 475.607 339.999 469.987 339.999C464.367 339.999 461.957 342.169 457.057 347.069C451.607 352.529 444.137 359.999 429.987 359.999C415.837 359.999 408.367 352.529 402.907 347.069C397.977 342.169 395.597 339.999 389.977 339.999C384.357 339.999 381.957 342.169 377.057 347.069C371.597 352.529 364.117 359.999 349.987 359.999C335.857 359.999 328.387 352.529 322.927 347.069Z"
          fill="#282828"/>
</svg>

<?xml version="1.0" encoding="utf-8"?>
<!-- Generator: Adobe Illustrator 28.2.0, SVG Export Plug-In . SVG Version: 6.00 Build 0)  -->
<svg version="1.1" id="Calque_1" xmlns="http://www.w3.org/2000/svg" xmlns:xlink="http://www.w3.org/1999/xlink" x="0px" y="0px"
	 viewBox="0 0 512 512" style="enable-background:new 0 0 512 512;" xml:space="preserve">
<style type="text/css">
	.st0{fill:#33B0DF;}
	.st1{fill:#282828;}
</style>
<path class="st0" d="M75,382.5l52.3,3.7h255.8l70.3-10.6l33.6-41.7l-19.9-6.8l-39.8,22.4l-39.8-22.4l-39.8,22.4l-40.5-22.4
	l-35.5,22.4L230,327.1l-40.5,22.4l-43-22.4l-40.5,22.4l-39.2-22.4l-36.7,22.4L75,382.5z"/>
<path class="st1" d="M401,131.5H210v-36c0-2.7-1.1-5.2-2.9-7.1c-1.9-1.9-4.4-2.9-7.1-2.9h-72c-2.7,0-5.2,1.1-7.1,2.9
	c-1.9,1.9-2.9,4.4-2.9,7.1v36h-7c-29.2,0-57.1,11.6-77.7,32.3C12.6,184.4,1,212.3,1,241.5v46c0,29.2,11.6,57.1,32.3,77.7
	c20.6,20.6,48.6,32.2,77.7,32.3h7v19c0,2.7,1.1,5.2,2.9,7.1s4.4,2.9,7.1,2.9h72c2.7,0,5.2-1.1,7.1-2.9s2.9-4.4,2.9-7.1v-19h92v19
	c0,2.7,1.1,5.2,2.9,7.1s4.4,2.9,7.1,2.9h72c2.7,0,5.2-1.1,7.1-2.9s2.9-4.4,2.9-7.1v-19h7c29.2,0,57.1-11.6,77.7-32.3
	c20.6-20.6,32.2-48.6,32.3-77.7v-46c0-29.2-11.6-57.1-32.3-77.7C458.1,143.1,430.2,131.5,401,131.5z M118,377.5h-7
	c-23.9,0-46.7-9.5-63.6-26.4C30.5,334.2,21,311.4,21,287.5v-46c0-23.9,9.5-46.7,26.4-63.6c16.9-16.9,39.7-26.4,63.6-26.4h7V377.5z
	 M138,105.5h52v26h-52V105.5z M190,406.5h-52v-9h52V406.5z M138,377.5v-226h235v226H138z M374,406.5h-52v-9h52V406.5z M491,287.5
	c0,23.9-9.5,46.7-26.4,63.6c-16.9,16.9-39.7,26.4-63.6,26.4h-8v-226h8c23.9,0,46.7,9.5,63.6,26.4c16.9,16.9,26.4,39.7,26.4,63.6
	V287.5z"/>
<path class="st1" d="M17.1,332.9c4.9,4.9,7.3,7.1,12.9,7.1s8-2.2,12.9-7.1C48.4,327.5,55.9,320,70,320c14.1,0,21.6,7.5,27.1,12.9
	l0,0c4.9,4.9,7.3,7.1,12.9,7.1s8-2.2,12.9-7.1c5.5-5.5,12.9-12.9,27.1-12.9c14.1,0,21.6,7.4,27,12.9l0,0c4.9,4.9,7.3,7.1,12.9,7.1
	s8-2.2,12.9-7.1c5.5-5.5,13-12.9,27.1-12.9s21.6,7.5,27,12.9c1.1,1.1,2.1,2,3,2.9l0,22.8c-8-2.4-13.1-7.5-17.1-11.5
	c-4.9-4.9-7.3-7.1-12.9-7.1s-8,2.2-12.9,7.1l0,0c-5.5,5.5-12.9,12.9-27,12.9c-14.2,0-21.6-7.5-27.1-12.9c-4.9-4.9-7.3-7.1-12.9-7.1
	s-8,2.2-12.9,7.1c-5.5,5.5-12.9,12.9-27.1,12.9c-14.2,0-21.6-7.5-27.1-12.9C78,342.2,75.6,340,70,340c-5.6,0-8,2.2-12.9,7.1
	C51.6,352.5,44.1,360,30,360L17.1,332.9z"/>
<path class="st1" d="M162.9,347.1c-1.1-1.1-2-2-2.9-2.8v-22.8c8,2.4,13.1,7.5,17.1,11.5c4.9,4.9,7.3,7.1,12.9,7.1
	c5.6,0,8-2.2,12.9-7.1c5.5-5.5,12.9-12.9,27.1-12.9c14.1,0,21.6,7.5,27.1,12.9l0,0c4.9,4.9,7.3,7.1,12.9,7.1c5.6,0,8-2.2,12.9-7.1
	c5.5-5.5,12.9-12.9,27.1-12.9c14.1,0,21.6,7.4,27,12.9l0,0l-14.2,14.1c-4.9-4.9-7.3-7.1-12.9-7.1s-8,2.2-12.9,7.1
	c-5.5,5.5-12.9,12.9-27.1,12.9c-14.2,0-21.6-7.5-27.1-12.9c-4.9-4.9-7.3-7.1-12.9-7.1c-5.6,0-8,2.2-12.9,7.1
	c-5.5,5.5-12.9,12.9-27.1,12.9S168.4,352.5,162.9,347.1z"/>
<path class="st1" d="M322.9,347.1c-1.1-1.1-2-2-2.9-2.8v-22.8c8,2.4,13.1,7.5,17.1,11.5c4.9,4.9,7.3,7.1,12.9,7.1s8-2.2,12.9-7.1
	c5.5-5.5,12.9-12.9,27.1-12.9c14.1,0,21.6,7.5,27.1,12.9l0,0c4.9,4.9,7.3,7.1,12.9,7.1s8-2.2,12.9-7.1c5.5-5.5,12.9-12.9,27.1-12.9
	c14.1,0,21.6,7.4,27,12.9l0,0l-14.2,14.1c-4.9-4.9-7.3-7.1-12.9-7.1s-8,2.2-12.9,7.1c-5.5,5.5-12.9,12.9-27.1,12.9
	s-21.6-7.5-27.1-12.9c-4.9-4.9-7.3-7.1-12.9-7.1s-8,2.2-12.9,7.1c-5.5,5.5-12.9,12.9-27.1,12.9S328.4,352.5,322.9,347.1z"/>
</svg>
